SVG_Azure_Grouped/Security/File Integrity Monitoring.svg

<?xml version="1.0" encoding="UTF-8" standalone="no"?>
<!-- Generated by Microsoft Visio, SVG Export File Integrity Monitoring.svg Page-1 -->

<svg
   xmlns:dc="http://purl.org/dc/elements/1.1/"
   xmlns:cc="http://creativecommons.org/ns#"
   xmlns:rdf="http://www.w3.org/1999/02/22-rdf-syntax-ns#"
   xmlns:svg="http://www.w3.org/2000/svg"
   xmlns="http://www.w3.org/2000/svg"
   xmlns:sodipodi="http://sodipodi.sourceforge.net/DTD/sodipodi-0.dtd"
   xmlns:inkscape="http://www.inkscape.org/namespaces/inkscape"
   width="0.79906672in"
   height="0.79909092in"
   viewBox="0 0 57.532664 57.534838"
   xml:space="preserve"
   class="st7"
   version="1.1"
   id="svg41"
   sodipodi:docname="File Integrity Monitoring.svg"
   style="font-size:12px;overflow:visible;color-interpolation-filters:sRGB;fill:none;fill-rule:evenodd;stroke-linecap:square;stroke-miterlimit:3"
   inkscape:version="0.92.5 (2060ec1f9f, 2020-04-08)"><metadata
   id="metadata47"><rdf:RDF><cc:Work
       rdf:about=""><dc:format>image/svg+xml</dc:format><dc:type
         rdf:resource="http://purl.org/dc/dcmitype/StillImage" /></cc:Work></rdf:RDF></metadata><defs
   id="defs45" /><sodipodi:namedview
   pagecolor="#ffffff"
   bordercolor="#666666"
   borderopacity="1"
   objecttolerance="10"
   gridtolerance="10"
   guidetolerance="10"
   inkscape:pageopacity="0"
   inkscape:pageshadow="2"
   inkscape:window-width="640"
   inkscape:window-height="480"
   id="namedview43"
   showgrid="false"
   inkscape:zoom="1.7193066"
   inkscape:cx="38.315669"
   inkscape:cy="24.399183"
   inkscape:window-x="0"
   inkscape:window-y="0"
   inkscape:window-maximized="0"
   inkscape:current-layer="svg41" />
	<style
   type="text/css"
   id="style2">
	<![CDATA[
		.st1 {fill:#59b4d9;stroke:none;stroke-linecap:butt;stroke-width:12.24}
		.st2 {fill:#ffffff;fill-opacity:0.8;stroke:none;stroke-linecap:butt;stroke-width:12.24}
		.st3 {fill:#59b4d9}
		.st4 {stroke:none;stroke-linecap:butt;stroke-width:12.24}
		.st5 {fill:#00188f;stroke:none;stroke-linecap:butt;stroke-width:12.24}
		.st6 {fill:#1e1e1e;fill-opacity:0.5;stroke:none;stroke-linecap:butt;stroke-width:12.24}
		.st7 {fill:none;fill-rule:evenodd;font-size:12px;overflow:visible;stroke-linecap:square;stroke-miterlimit:3}
	]]>
	</style>

	<g
   id="g39"
   transform="translate(-12.24031,-12.23914)">
		<title
   id="title4">Page-1</title>
		<g
   id="group16834-1"
   transform="translate(12.24,-34.0157)">
			<title
   id="title6">File Integrity Monitoring.16834</title>
			<g
   id="group16835-2">
				<title
   id="title8">Sheet.16835</title>
				<g
   id="shape16836-3"
   transform="translate(0,-2.74516)">
					<title
   id="title10">Sheet.16836</title>
					<path
   d="M 46.4,56.34 41.1,51.16 38.89,49 H 0 v 53.95 H 48.61 V 58.5 Z"
   class="st1"
   id="path12"
   inkscape:connector-curvature="0"
   style="fill:#59b4d9;stroke:none;stroke-width:12.23999977;stroke-linecap:butt" />
				</g>
				<g
   id="shape16837-5"
   transform="translate(2.20918,-4.90256)">
					<title
   id="title15">Sheet.16837</title>
					<path
   d="M 36.46,53.32 H 0 v 49.63 H 44.2 V 60.87 h -7.74 z"
   class="st2"
   id="path17"
   inkscape:connector-curvature="0"
   style="fill:#ffffff;fill-opacity:0.8;stroke:none;stroke-width:12.23999977;stroke-linecap:butt" />
				</g>
				<g
   id="shape16838-7"
   transform="translate(9.35352,-13.2106)">
					<title
   id="title20">Sheet.16838</title>
					<path
   d="m 19.15,101.76 a 1.22614,1.1974 0 0 1 -1.21,1.19 H 1.25 a 1.2185613,1.19 0 1 1 0,-2.38 h 16.69 a 1.22614,1.1974 0 0 1 1.21,1.19 z M 30.31,85.58 A 1.22732,1.19856 0 0 1 29.1,86.76 H 1.25 a 1.21552,1.18703 0 0 1 0,-2.37 h 27.74 a 1.25447,1.22506 0 0 1 1.32,1.19 z m 0,8.09 A 1.22732,1.19856 0 0 1 29.1,94.86 H 1.25 a 1.2185613,1.19 0 1 1 0,-2.38 h 27.74 a 1.25447,1.22506 0 0 1 1.32,1.19 z m 0,-16.18 A 1.22732,1.19856 0 0 1 29.1,78.67 H 1.25 a 1.21552,1.18703 0 0 1 0,-2.37 h 27.74 a 1.25447,1.22506 0 0 1 1.32,1.19 z"
   class="st3"
   id="path22"
   inkscape:connector-curvature="0"
   style="fill:#59b4d9" />
					<path
   d="m 19.15,101.76 a 1.22614,1.1974 0 0 1 -1.21,1.19 H 1.25 a 1.2185613,1.19 0 1 1 0,-2.38 h 16.69 a 1.22614,1.1974 0 0 1 1.21,1.19 M 30.31,85.58 A 1.22732,1.19856 0 0 1 29.1,86.76 H 1.25 a 1.21552,1.18703 0 0 1 0,-2.37 h 27.74 a 1.25447,1.22506 0 0 1 1.32,1.19 m 0,8.09 A 1.22732,1.19856 0 0 1 29.1,94.86 H 1.25 a 1.2185613,1.19 0 1 1 0,-2.38 h 27.74 a 1.25447,1.22506 0 0 1 1.32,1.19 m 0,-16.18 A 1.22732,1.19856 0 0 1 29.1,78.67 H 1.25 a 1.21552,1.18703 0 0 1 0,-2.37 h 27.74 a 1.25447,1.22506 0 0 1 1.32,1.19"
   class="st4"
   id="path24"
   inkscape:connector-curvature="0"
   style="stroke:none;stroke-width:12.23999977;stroke-linecap:butt" />
				</g>
				<g
   id="shape16839-10"
   transform="translate(27.4755)">
					<title
   id="title27">Sheet.16839</title>
					<path
   d="m 0,87.68 a 11.2324,10.9691 -180 0 0 13.6,8.03 11.0318,10.7732 -180 0 0 2.95,-1.18 l 8.55,8.42 a 2.897599,2.8296817 -180 0 0 4.12,-3.98 l -8.6,-8.46 A 11.2241,10.961 -180 1 0 0,87.68 Z m 4.17,-6.61 a 7.82183,7.6385 0 0 1 4.86,-3.49 7.87493,7.69036 0 1 1 -5.76,9.31 7.81829,7.63504 0 0 1 0.9,-5.82 z"
   class="st5"
   id="path29"
   inkscape:connector-curvature="0"
   style="fill:#00188f;stroke:none;stroke-width:12.23999977;stroke-linecap:butt" />
				</g>
				<g
   id="shape16840-12"
   transform="translate(44.0267,-7.61891)">
					<title
   id="title32">Sheet.16840</title>
					<path
   d="m 0,102.15 0.81,0.8 a 4.49507,4.38972 -180 0 0 0.62,-0.27 12.4137,12.1227 -180 0 0 3.21,-3.17 c 0.12,-0.16 0.22,-0.33 0.33,-0.5 L 4.88,98.92 4.07,98.13 c -0.14,0.24 -0.28,0.48 -0.44,0.71 a 11.2288,10.9656 0 0 1 -2.9,2.86 c -0.24,0.16 -0.48,0.31 -0.73,0.45 z"
   class="st6"
   id="path34"
   inkscape:connector-curvature="0"
   style="fill:#1e1e1e;fill-opacity:0.5;stroke:none;stroke-width:12.23999977;stroke-linecap:butt" />
				</g>
			</g>
		</g>
	</g>
</svg>

<?xml version="1.0" encoding="UTF-8" standalone="no"?>
<!DOCTYPE svg PUBLIC "-//W3C//DTD SVG 1.1//EN" "http://www.w3.org/Graphics/SVG/1.1/DTD/svg11.dtd">
<!-- Generated by Microsoft Visio, SVG Export File Integrity Monitoring.svg Page-1 -->
<svg xmlns="http://www.w3.org/2000/svg" xmlns:xlink="http://www.w3.org/1999/xlink" xmlns:ev="http://www.w3.org/2001/xml-events"
		width="1.13825in" height="1.42984in" viewBox="0 0 81.9538 102.949" xml:space="preserve" color-interpolation-filters="sRGB"
		class="st7">
	<style type="text/css">
	<![CDATA[
		.st1 {fill:#59b4d9;stroke:none;stroke-linecap:butt;stroke-width:12.24}
		.st2 {fill:#ffffff;fill-opacity:0.8;stroke:none;stroke-linecap:butt;stroke-width:12.24}
		.st3 {fill:#59b4d9}
		.st4 {stroke:none;stroke-linecap:butt;stroke-width:12.24}
		.st5 {fill:#00188f;stroke:none;stroke-linecap:butt;stroke-width:12.24}
		.st6 {fill:#1e1e1e;fill-opacity:0.5;stroke:none;stroke-linecap:butt;stroke-width:12.24}
		.st7 {fill:none;fill-rule:evenodd;font-size:12px;overflow:visible;stroke-linecap:square;stroke-miterlimit:3}
	]]>
	</style>

	<g>
		<title>Page-1</title>
		<g id="group16441-1" transform="translate(12.24,-34.0157)">
			<title>File Integrity Monitoring.16441</title>
			<g id="group16442-2">
				<title>Sheet.16442</title>
				<g id="shape16443-3" transform="translate(0,-2.74516)">
					<title>Sheet.16443</title>
					<path d="M46.4 56.34 L41.1 51.16 L38.89 49 L0 49 L0 102.95 L48.61 102.95 L48.61 58.5 L46.4 56.34 Z" class="st1"/>
				</g>
				<g id="shape16444-5" transform="translate(2.20918,-4.90256)">
					<title>Sheet.16444</title>
					<path d="M36.46 53.32 L0 53.32 L0 102.95 L44.2 102.95 L44.2 60.87 L36.46 60.87 L36.46 53.32 Z" class="st2"/>
				</g>
				<g id="shape16445-7" transform="translate(9.35352,-13.2106)">
					<title>Sheet.16445</title>
					<path d="M19.15 101.76 A1.22614 1.1974 0 0 1 17.94 102.95 L1.25 102.95 A1.21552 1.18703 0 1 1 1.25 100.57 L17.94
								 100.57 A1.22614 1.1974 0 0 1 19.15 101.76 ZM30.31 85.58 A1.22732 1.19856 0 0 1 29.1 86.76 L1.25
								 86.76 A1.21552 1.18703 0 0 1 1.25 84.39 L28.99 84.39 A1.25447 1.22506 0 0 1 30.31 85.58 L30.31 85.58
								 ZM30.31 93.67 A1.22732 1.19856 0 0 1 29.1 94.86 L1.25 94.86 A1.21552 1.18703 0 1 1 1.25 92.48 L28.99
								 92.48 A1.25447 1.22506 0 0 1 30.31 93.67 L30.31 93.67 ZM30.31 77.49 A1.22732 1.19856 0 0 1 29.1
								 78.67 L1.25 78.67 A1.21552 1.18703 0 0 1 1.25 76.3 L28.99 76.3 A1.25447 1.22506 0 0 1 30.31 77.49
								 L30.31 77.49 Z" class="st3"/>
					<path d="M19.15 101.76 A1.22614 1.1974 0 0 1 17.94 102.95 L1.25 102.95 A1.21552 1.18703 0 1 1 1.25 100.57 L17.94
								 100.57 A1.22614 1.1974 0 0 1 19.15 101.76M30.31 85.58 A1.22732 1.19856 0 0 1 29.1 86.76 L1.25 86.76
								 A1.21552 1.18703 0 0 1 1.25 84.39 L28.99 84.39 A1.25447 1.22506 0 0 1 30.31 85.58M30.31 93.67 A1.22732
								 1.19856 0 0 1 29.1 94.86 L1.25 94.86 A1.21552 1.18703 0 1 1 1.25 92.48 L28.99 92.48 A1.25447 1.22506
								 0 0 1 30.31 93.67M30.31 77.49 A1.22732 1.19856 0 0 1 29.1 78.67 L1.25 78.67 A1.21552 1.18703 0 0
								 1 1.25 76.3 L28.99 76.3 A1.25447 1.22506 0 0 1 30.31 77.49" class="st4"/>
				</g>
				<g id="shape16446-10" transform="translate(27.4755,1.42109E-14)">
					<title>Sheet.16446</title>
					<path d="M-0 87.68 A11.2324 10.9691 -180 0 0 13.6 95.71 A11.0318 10.7732 -180 0 0 16.55 94.53 L25.1 102.95 A2.89601
								 2.82813 -180 0 0 29.22 98.97 L20.62 90.51 A11.2241 10.961 -180 1 0 -0 87.68 L0 87.68 ZM4.17 81.07
								 A7.82183 7.6385 0 0 1 9.03 77.58 A7.87493 7.69036 0 1 1 3.27 86.89 A7.81829 7.63504 0 0 1 4.17 81.07
								 Z" class="st5"/>
				</g>
				<g id="shape16447-12" transform="translate(44.0267,-7.61891)">
					<title>Sheet.16447</title>
					<path d="M0 102.15 L0.81 102.95 A4.49507 4.38972 -180 0 0 1.43 102.68 A12.4137 12.1227 -180 0 0 4.64 99.51 C4.76
								 99.35 4.86 99.18 4.97 99.01 L4.88 98.92 L4.07 98.13 C3.93 98.37 3.79 98.61 3.63 98.84 A11.2288 10.9656
								 0 0 1 0.73 101.7 C0.49 101.86 0.25 102.01 0 102.15 Z" class="st6"/>
				</g>
			</g>
		</g>
	</g>
</svg>
